templates/main/source/images/big/tools.svg

<?xml version="1.0" encoding="utf-8"?>
<svg width="40px" height="40px" viewBox="0 0 40 40" version="1.1" xmlns:xlink="http://www.w3.org/1999/xlink" xmlns="http://www.w3.org/2000/svg">
  <desc>Created with Lunacy</desc>
  <g id="tools">
    <path d="M18.8235 0C29.2195 5.22458e-16 37.6471 8.42758 37.6471 18.8235C37.6471 29.2195 29.2195 37.6471 18.8235 37.6471C8.42758 37.6471 1.30614e-15 29.2195 0 18.8235C-1.30614e-15 8.42758 8.42758 1.8286e-15 18.8235 0Z" transform="translate(1.1764706 1.1764706)" id="Path" fill="#FFFFFF" stroke="none" />
    <path d="M0 20C0 31.0457 8.9543 40 20 40C25.3043 40 30.3914 37.8929 34.1421 34.1421C37.8929 30.3914 40 25.3043 40 20C40 8.9543 31.0457 0 20 0C8.9543 0 0 8.9543 0 20ZM2.35294 20C2.35294 10.2538 10.2538 2.35294 20 2.35294C24.6803 2.35294 29.1689 4.21218 32.4784 7.52165C35.7878 10.8311 37.6471 15.3197 37.6471 20C37.6471 29.7462 29.7462 37.6471 20 37.6471C10.2538 37.6471 2.35294 29.7462 2.35294 20Z" id="Shape" fill="#8C0014" fill-rule="evenodd" stroke="none" />
    <g id="tools" transform="translate(6.6666665 6.6666665)">
      <g id="tools">
        <path d="M0 0L26.6667 0L26.6667 26.6667L0 26.6667L0 0Z" id="Rectangle-4" fill="none" stroke="none" />
        <path d="M19.6673 0.333698C19.5267 0.205454 19.3551 0.110192 19.1976 0L18.9536 0C18.8929 0.0280983 18.8291 0.0512735 18.7719 0.0850155C17.6859 0.725393 16.5967 1.36049 15.5178 2.01219C15.1831 2.21433 15.1461 2.62043 15.4012 2.91614C15.4826 3.01044 15.574 3.0963 15.677 3.20277C14.3151 4.55882 12.9649 5.90329 11.6303 7.2322C12.1716 7.76923 12.7332 8.32647 13.328 8.91658C14.6753 7.57434 16.0251 6.22955 17.3906 4.86918C17.5106 4.9917 17.602 5.0894 17.6981 5.18234C18.0693 5.54118 18.4907 5.49122 18.7603 5.0511C19.3755 4.04676 19.9879 3.04074 20.5992 2.03413C20.817 1.67561 20.7859 1.43298 20.4892 1.13742C20.2178 0.867006 19.9504 0.592026 19.6673 0.333698ZM5.52159 0.235264C5.22981 0.140212 4.91971 0.101116 4.61807 0.036266L3.96993 0.036266C3.75276 0.076575 3.53603 0.119876 3.31821 0.156384C3.04615 0.201909 2.83486 0.322189 2.74772 0.600754C2.65937 0.883281 2.78357 1.09441 2.97688 1.28617C3.48406 1.78908 3.99286 2.2905 4.49242 2.80093C5.04792 3.36857 4.9991 4.1925 4.39256 4.65551C3.97147 4.97697 3.32948 4.98914 2.92981 4.63525C2.49158 4.24732 2.08766 3.8207 1.66957 3.41013C1.51089 3.25436 1.35866 3.09183 1.19606 2.94029C0.805952 2.57678 0.273539 2.73147 0.153145 3.24926C0.0865479 3.53583 0.0500491 3.82936 2.0175e-05 4.11973L2.0175e-05 4.4836C0.0273639 4.66901 0.0459577 4.85624 0.0834692 5.0396C0.404343 6.60914 1.31791 7.6913 2.81169 8.26217C3.67073 8.59051 4.56027 8.54862 5.44211 8.33564C5.62789 8.2908 5.74379 8.32731 5.87986 8.46384C8.01263 10.6043 10.1503 12.74 12.2939 14.8697C12.438 15.0127 12.471 15.135 12.4235 15.3249C12.2568 15.9918 12.2029 16.6697 12.3396 17.3471C12.8196 19.7239 15.1712 21.1934 17.5251 20.5964C18.0394 20.466 18.195 19.9362 17.8297 19.5483C17.6725 19.3815 17.5051 19.2243 17.3441 19.061C16.9371 18.6481 16.5139 18.2493 16.1297 17.8163C15.7725 17.4135 15.787 16.7796 16.1153 16.3577C16.582 15.7583 17.4142 15.714 17.9805 16.2678C18.5061 16.7818 19.0178 17.3099 19.5444 17.8229C19.9343 18.2027 20.4783 18.0415 20.6043 17.5169C20.7508 16.9069 20.7935 16.291 20.6553 15.6753C20.2907 14.0496 19.3212 12.9571 17.7276 12.4459C16.9289 12.1897 16.1159 12.249 15.3082 12.4324C15.2998 12.4343 15.2916 12.4362 15.2834 12.4381C15.1596 12.4669 15.0506 12.4922 14.9275 12.3685C12.7573 10.1892 10.5805 8.01628 8.40115 5.84606C8.29919 5.74454 8.28436 5.65765 8.32171 5.52747C8.54763 4.74013 8.58061 3.94337 8.34772 3.15583C7.91634 1.69702 6.97701 0.70935 5.52159 0.235264ZM0.480206 16.8736C0.208449 17.2133 0.093007 17.6188 0 18.0331L0 18.598C0.0135173 18.6493 0.0299398 18.7 0.0401887 18.752C0.159504 19.3562 0.452607 19.8574 0.94399 20.2303C1.94524 20.9902 3.2594 20.8952 4.17022 19.9884C6.05187 18.115 7.92653 16.2347 9.8037 14.3568C9.83485 14.3257 9.861 14.2895 9.86415 14.2858C8.71861 13.1394 7.58566 12.0056 6.44851 10.8676C6.43895 10.8766 6.41377 10.8985 6.3902 10.922C4.50783 12.8042 2.62534 14.6862 0.744258 16.5696C0.649636 16.6644 0.564014 16.7689 0.480206 16.8736ZM3.64833 18.0672C3.50711 18.2086 3.35765 18.3283 3.22716 18.3235C2.89875 18.3208 2.71532 18.2114 2.60428 17.9971C2.49323 17.7829 2.50957 17.5686 2.64979 17.3697C2.68824 17.3152 2.73598 17.2666 2.78331 17.2192C3.95604 16.0451 5.12995 14.8721 6.30196 13.6972C6.48886 13.5099 6.69416 13.394 6.96858 13.4725C7.36914 13.5871 7.53772 14.0522 7.29978 14.3944C7.25797 14.4545 7.20576 14.5083 7.15371 14.5604C5.98549 15.7296 4.81639 16.8979 3.64833 18.0672Z" transform="translate(2.9629428 2.9629629)" id="Combined-Shape" fill="#8C0014" fill-rule="evenodd" stroke="none" />
      </g>
    </g>
  </g>
</svg>

<svg width="40" height="40" viewBox="0 0 40 40" xmlns:xlink="http://www.w3.org/1999/xlink" xmlns="http://www.w3.org/2000/svg"><g id="tools"><path d="M18.823 0C29.22 0 37.648 8.428 37.648 18.823c0 10.396-8.427 18.824-18.823 18.824S0 29.22 0 18.824 8.428 0 18.823 0z" transform="translate(1.176 1.176)" id="Path" fill="#FFF" stroke="none"/><path d="M0 20c0 11.046 8.954 20 20 20a20 20 0 0020-20C40 8.954 31.046 0 20 0S0 8.954 0 20zm2.353 0c0-9.746 7.9-17.647 17.647-17.647A17.647 17.647 0 0137.647 20c0 9.746-7.9 17.647-17.647 17.647-9.746 0-17.647-7.9-17.647-17.647z" id="Shape" fill="#8C0014" fill-rule="evenodd" stroke="none"/><g id="tools" transform="translate(6.667 6.667)"><g id="tools" stroke="none"><path d="M0 0h26.667v26.667H0V0z" id="Rectangle-4" fill="none"/><path d="M19.667.334c-.14-.129-.312-.224-.47-.334h-.243c-.061.028-.125.051-.182.085-1.086.64-2.175 1.275-3.254 1.927-.335.202-.372.608-.117.904.082.094.173.18.276.287l-4.047 4.03c.542.536 1.103 1.093 1.698 1.684l4.063-4.048c.12.123.211.22.307.313.371.36.793.31 1.062-.13.615-1.005 1.228-2.011 1.84-3.018.217-.358.186-.601-.11-.897-.272-.27-.54-.545-.823-.803zM5.522.235C5.23.14 4.92.101 4.618.036H3.97c-.217.04-.434.084-.652.12-.272.046-.483.166-.57.445-.089.282.036.493.229.685.507.503 1.016 1.005 1.515 1.515.556.568.507 1.391-.1 1.855-.42.321-1.063.333-1.462-.02-.438-.389-.842-.815-1.26-1.226-.16-.156-.311-.318-.474-.47-.39-.363-.922-.209-1.043.31-.066.286-.103.58-.153.87v.364c.027.185.046.372.083.556.321 1.57 1.235 2.651 2.729 3.222.859.329 1.748.287 2.63.074.186-.045.302-.009.438.128 2.133 2.14 4.27 4.276 6.414 6.406.144.143.177.265.13.455-.167.667-.221 1.345-.084 2.022a4.21 4.21 0 005.185 3.25c.514-.131.67-.66.305-1.049-.157-.166-.325-.324-.486-.487-.407-.413-.83-.812-1.214-1.245-.357-.402-.343-1.036-.015-1.458.467-.6 1.3-.644 1.866-.09.525.514 1.037 1.042 1.563 1.555.39.38.934.218 1.06-.306.147-.61.19-1.226.051-1.842-.364-1.625-1.334-2.718-2.927-3.23-.8-.255-1.612-.196-2.42-.013a4.818 4.818 0 00-.025.006c-.123.029-.232.054-.355-.07A2201.5 2201.5 0 008.4 5.846c-.102-.101-.117-.188-.08-.319.227-.787.26-1.584.027-2.371C7.916 1.697 6.977.709 5.522.236zM.48 16.874c-.272.34-.387.745-.48 1.16v.564c.014.051.03.102.04.154.12.604.413 1.105.904 1.478 1.001.76 2.315.665 3.226-.242 1.882-1.873 3.757-3.753 5.634-5.631a.817.817 0 00.06-.071L6.45 10.868c-.01.009-.035.03-.059.054-1.882 1.882-3.765 3.764-5.646 5.648-.094.094-.18.199-.264.304zm3.168 1.193c-.14.142-.29.261-.42.256-.33-.002-.513-.112-.624-.326a.571.571 0 01.046-.627 1.19 1.19 0 01.133-.15c1.173-1.175 2.347-2.348 3.519-3.523.187-.187.392-.303.667-.224.4.114.569.58.33.921-.041.06-.093.114-.145.166l-3.506 3.507z" transform="translate(2.963 2.963)" id="Combined-Shape" fill="#8C0014" fill-rule="evenodd"/></g></g></g></svg>
